qtOfs/res/icons/showhide.svg

<svg width="40" xmlns="http://www.w3.org/2000/svg" height="40" viewBox="0 0 32 32">
<g fill="#919293">
<path d="m1.05,4.06c4.7-.3 9.42,.05 14.09,.61-.06,2.73-.12,5.47-.17,8.2l-1-.04c-.02-1.44-.06-4.34-.07-5.79-3.96-.15-7.92-.15-11.88,.01-.13,2.64-.12,5.28 .04,7.92 3.21,.07 6.44,.1 9.64-.17 .36,.28 1.06,.83 1.42,1.11-.06,2.69-.07,5.38-.02,8.07l.02,.91-.84-.25-.61-4.57c-2.41-.02-7.23-.04-9.64-.06 1.38,2.6-3.34,12.13 4.98,8.04 2.6-.41 8.11,1.62 7.07-2.88l1-.02c-.04,1.26-.12,2.51-.23,3.75-4.34,.15-8.68,.17-13.02,.3l-.85-.1c-.05-8.35-.04-16.69 .07-25.04m.93,.94c1.47,3.09 8.92-.18 12.04,1-1.47-3.09-8.92,.18-12.04-1m.02,11.01c2.5,.24 7.5,.74 10,.98-2.5-.24-7.5-.74-10-.98m0,2c2.5,.24 7.5,.74 10,.98-2.5-.24-7.5-.74-10-.98z"/>
<path d="m15.86,4.56c4.64-1.15 9.51-.35 14.24-.61l.23,.83c-.1,2.77-.32,8.31-.42,11.08-1.29,.1-2.58,.17-3.88,.2l.2-.95c4.83,.86 2.47-5.04 2.72-8.08-3.96-.15-7.91-.14-11.87,.03-.03,1.47-.09,4.41-.12,5.88l-.98-.04c-.02-2.78-.06-5.56-.12-8.34m1.12,.44c1.47,3.09 8.92-.18 12.04,1-1.47-3.09-8.92,.18-12.04-1z"/>
</g>
<path opacity=".18" fill="#181818" d="m30.1,3.95c.47,0 1.42,0 1.9,0v13.91c-1.3,.06-2.59,.16-3.88,.29-.24,2.91-.09,5.83-.23,8.75-2.65,.06-7.95,.18-10.6,.24-.18,1.25-.36,2.51-.53,3.77-5.23,.19-10.45,.21-15.68,.05-.03-.46-.08-1.4-.1-1.86l.85,.1c4.59,.72 9.28,1.1 13.92,.69 .18-1.25 .36-2.5 .55-3.75 2.64-.06 7.94-.18 10.58-.24 .15-2.89-.01-5.78 .27-8.65 1.26-.18 2.53-.36 3.79-.54-.19-3.94 .73-8.11-.61-11.93l-.23-.83z"/>
<g fill="#c0c0c0">
<path d="m1.98,5c3.12,1.18 10.57-2.09 12.04,1-3.12-1.18-10.57,2.09-12.04-1z"/>
<path d="m16.98,5c3.12,1.18 10.57-2.09 12.04,1-3.12-1.18-10.57,2.09-12.04-1z"/>
<path d="m2,18.01c2.5,.24 7.5,.74 10,.98-2.5-.24-7.5-.74-10-.98z"/>
</g>
<g fill="#4b4b4b">
<path opacity=".55" d="m15.14,4.67l.72-.11c.06,2.78 .1,5.56 .12,8.34l-1.01-.03c.05-2.73 .11-5.47 .17-8.2z"/>
<path opacity=".55" d="m30.33,4.78c1.34,3.82 .42,7.99 .61,11.93-1.26,.18-2.53,.36-3.79,.54-.28,2.87-.12,5.76-.27,8.65-2.64,.06-7.94,.18-10.58,.24-.19,1.25-.37,2.5-.55,3.75-4.64,.41-9.33,.03-13.92-.69 4.34-.13 8.68-.15 13.02-.3 .11-1.24 .19-2.49 .23-3.75 2.71-.06 8.12-.19 10.82-.26 .09-2.94 .13-5.88 .13-8.83 1.3-.03 2.59-.1 3.88-.2 .1-2.77 .32-8.31 .42-11.08z"/>
<path opacity=".55" d="m2,16.01c2.5,.24 7.5,.74 10,.98-2.5-.24-7.5-.74-10-.98z"/>
</g>
<g fill="#f3f4f6">
<path d="m2.02,7.05c3.96-.16 7.92-.16 11.88-.01 .01,1.45 .05,4.35 .07,5.79-1.03,.35-1.78,1.01-2.27,1.97-3.2,.27-6.43,.24-9.64,.17-.16-2.64-.17-5.28-.04-7.92z"/>
<path d="m17.08,7.06c3.96-.17 7.91-.18 11.87-.03-.25,3.04 2.11,8.94-2.72,8.08-.14-4.48-6.37-1.23-9.27-2.17 .03-1.47 .09-4.41 .12-5.88z"/>
<path d="m13.12,15.91c3.97,.06 7.95,.11 11.92,.16 .05,2.63 .01,5.26-.12,7.88-3.94,.07-7.88,.08-11.82,.03-.05-2.69-.04-5.38 .02-8.07z"/>
<path d="m2.03,20.01c2.41,.02 7.23,.04 9.64,.06l.61,4.57 .84,.25 .96,.28c1.04,4.5-4.47,2.47-7.07,2.88-8.32,4.09-3.6-5.44-4.98-8.04z"/>
</g>
<path fill="#5784dd" d="m11.7,14.8c.49-.96 1.24-1.62 2.27-1.97l1,.04 1.01,.03 .98,.04c2.9,.94 9.13-2.31 9.27,2.17l-.2,.95-.99,.01c-3.97-.05-7.95-.1-11.92-.16-.36-.28-1.06-.83-1.42-1.11z"/>
<path fill="#4e6378" d="m25.04,16.07l.99-.01c0,2.95-.04,5.89-.13,8.83-2.7,.07-8.11,.2-10.82,.26l-1,.02-.96-.28-.02-.91c3.94,.05 7.88,.04 11.82-.03 .13-2.62 .17-5.25 .12-7.88z"/>
</svg>

<?xml version="1.0" encoding="UTF-8" standalone="no"?>
<!-- Created with Inkscape (http://www.inkscape.org/) -->
<svg
   xmlns:svg="http://www.w3.org/2000/svg"
   xmlns="http://www.w3.org/2000/svg"
   version="1.0"
   width="32pt"
   height="32pt"
   viewBox="0 0 32 32"
   id="svg2">
  <defs
     id="defs42" />
  <g
     id="#919293ff">
    <path
       d="M 1.05,4.06 C 5.75,3.76 10.47,4.11 15.14,4.67 C 15.08,7.4 15.02,10.14 14.97,12.87 L 13.97,12.83 C 13.95,11.39 13.91,8.49 13.9,7.04 C 9.94,6.89 5.98,6.89 2.02,7.05 C 1.89,9.69 1.9,12.33 2.06,14.97 C 5.27,15.04 8.5,15.07 11.7,14.8 C 12.06,15.08 12.76,15.63 13.12,15.91 C 13.06,18.6 13.05,21.29 13.1,23.98 L 13.12,24.89 L 12.28,24.64 L 11.67,20.07 C 9.26,20.05 4.44,20.03 2.03,20.01 C 3.41,22.61 -1.31,32.14 7.01,28.05 C 9.61,27.64 15.12,29.67 14.08,25.17 L 15.08,25.15 C 15.04,26.41 14.96,27.66 14.85,28.9 C 10.51,29.05 6.17,29.07 1.83,29.2 L 0.98,29.1 C 0.93,20.75 0.94,12.41 1.05,4.06 M 1.98,5 C 3.45,8.09 10.9,4.82 14.02,6 C 12.55,2.91 5.1,6.18 1.98,5 M 2,16.01 C 4.5,16.25 9.5,16.75 12,16.99 C 9.5,16.75 4.5,16.25 2,16.01 M 2,18.01 C 4.5,18.25 9.5,18.75 12,18.99 C 9.5,18.75 4.5,18.25 2,18.01 z"
       id="path5"
       style="opacity:1;fill:#919293" />
    <path
       d="M 15.86,4.56 C 20.5,3.41 25.37,4.21 30.1,3.95 L 30.33,4.78 C 30.23,7.55 30.01,13.09 29.91,15.86 C 28.62,15.96 27.33,16.03 26.03,16.06 L 26.23,15.11 C 31.06,15.97 28.7,10.07 28.95,7.03 C 24.99,6.88 21.04,6.89 17.08,7.06 C 17.05,8.53 16.99,11.47 16.96,12.94 L 15.98,12.9 C 15.96,10.12 15.92,7.34 15.86,4.56 M 16.98,5 C 18.45,8.09 25.9,4.82 29.02,6 C 27.55,2.91 20.1,6.18 16.98,5 z"
       id="path7"
       style="opacity:1;fill:#919293" />
  </g>
  <g
     id="#1818182f">
    <path
       d="M 30.1,3.95 C 30.57,3.95 31.52,3.95 32,3.95 L 32,17.86 C 30.7,17.92 29.41,18.02 28.12,18.15 C 27.88,21.06 28.03,23.98 27.89,26.9 C 25.24,26.96 19.94,27.08 17.29,27.14 C 17.11,28.39 16.93,29.65 16.76,30.91 C 11.53,31.1 6.31,31.12 1.08,30.96 C 1.05,30.5 1,29.56 0.98,29.1 L 1.83,29.2 C 6.42,29.92 11.11,30.3 15.75,29.89 C 15.93,28.64 16.11,27.39 16.3,26.14 C 18.94,26.08 24.24,25.96 26.88,25.9 C 27.03,23.01 26.87,20.12 27.15,17.25 C 28.41,17.07 29.68,16.89 30.94,16.71 C 30.75,12.77 31.67,8.6 30.33,4.78 L 30.1,3.95 z"
       id="path10"
       style="opacity:0.18000004;fill:#181818" />
  </g>
  <g
     id="#c0c0c0ff">
    <path
       d="M 1.98,5 C 5.1,6.18 12.55,2.91 14.02,6 C 10.9,4.82 3.45,8.09 1.98,5 z"
       id="path13"
       style="opacity:1;fill:#c0c0c0" />
    <path
       d="M 16.98,5 C 20.1,6.18 27.55,2.91 29.02,6 C 25.9,4.82 18.45,8.09 16.98,5 z"
       id="path15"
       style="opacity:1;fill:#c0c0c0" />
    <path
       d="M 2,18.01 C 4.5,18.25 9.5,18.75 12,18.99 C 9.5,18.75 4.5,18.25 2,18.01 z"
       id="path17"
       style="opacity:1;fill:#c0c0c0" />
  </g>
  <g
     id="#4b4b4b8d">
    <path
       d="M 15.14,4.67 L 15.86,4.56 C 15.92,7.34 15.96,10.12 15.98,12.9 L 14.97,12.87 C 15.02,10.14 15.08,7.4 15.14,4.67 z"
       id="path20"
       style="opacity:0.55;fill:#4b4b4b" />
    <path
       d="M 30.33,4.78 C 31.67,8.6 30.75,12.77 30.94,16.71 C 29.68,16.89 28.41,17.07 27.15,17.25 C 26.87,20.12 27.03,23.01 26.88,25.9 C 24.24,25.96 18.94,26.08 16.3,26.14 C 16.11,27.39 15.93,28.64 15.75,29.89 C 11.11,30.3 6.42,29.92 1.83,29.2 C 6.17,29.07 10.51,29.05 14.85,28.9 C 14.96,27.66 15.04,26.41 15.08,25.15 C 17.79,25.09 23.2,24.96 25.9,24.89 C 25.99,21.95 26.03,19.01 26.03,16.06 C 27.33,16.03 28.62,15.96 29.91,15.86 C 30.01,13.09 30.23,7.55 30.33,4.78 z"
       id="path22"
       style="opacity:0.55;fill:#4b4b4b" />
    <path
       d="M 2,16.01 C 4.5,16.25 9.5,16.75 12,16.99 C 9.5,16.75 4.5,16.25 2,16.01 z"
       id="path24"
       style="opacity:0.55;fill:#4b4b4b" />
  </g>
  <g
     id="#f3f4f6ff">
    <path
       d="M 2.02,7.05 C 5.98,6.89 9.94,6.89 13.9,7.04 C 13.91,8.49 13.95,11.39 13.97,12.83 C 12.94,13.18 12.19,13.84 11.7,14.8 C 8.5,15.07 5.27,15.04 2.06,14.97 C 1.9,12.33 1.89,9.69 2.02,7.05 z"
       id="path27"
       style="opacity:1;fill:#f3f4f6" />
    <path
       d="M 17.08,7.06 C 21.04,6.89 24.99,6.88 28.95,7.03 C 28.7,10.07 31.06,15.97 26.23,15.11 C 26.09,10.63 19.86,13.88 16.96,12.94 C 16.99,11.47 17.05,8.53 17.08,7.06 z"
       id="path29"
       style="opacity:1;fill:#f3f4f6" />
    <path
       d="M 13.12,15.91 C 17.09,15.97 21.07,16.02 25.04,16.07 C 25.09,18.7 25.05,21.33 24.92,23.95 C 20.98,24.02 17.04,24.03 13.1,23.98 C 13.05,21.29 13.06,18.6 13.12,15.91 z"
       id="path31"
       style="opacity:1;fill:#f3f4f6" />
    <path
       d="M 2.03,20.01 C 4.44,20.03 9.26,20.05 11.67,20.07 L 12.28,24.64 L 13.12,24.89 L 14.08,25.17 C 15.12,29.67 9.61,27.64 7.01,28.05 C -1.31,32.14 3.41,22.61 2.03,20.01 z"
       id="path33"
       style="opacity:1;fill:#f3f4f6" />
  </g>
  <g
     id="#5784ddff">
    <path
       d="M 11.7,14.8 C 12.19,13.84 12.94,13.18 13.97,12.83 L 14.97,12.87 L 15.98,12.9 L 16.96,12.94 C 19.86,13.88 26.09,10.63 26.23,15.11 L 26.03,16.06 L 25.04,16.07 C 21.07,16.02 17.09,15.97 13.12,15.91 C 12.76,15.63 12.06,15.08 11.7,14.8 z"
       id="path36"
       style="opacity:1;fill:#5784dd" />
  </g>
  <g
     id="#4e6378ff">
    <path
       d="M 25.04,16.07 L 26.03,16.06 C 26.03,19.01 25.99,21.95 25.9,24.89 C 23.2,24.96 17.79,25.09 15.08,25.15 L 14.08,25.17 L 13.12,24.89 L 13.1,23.98 C 17.04,24.03 20.98,24.02 24.92,23.95 C 25.05,21.33 25.09,18.7 25.04,16.07 z"
       id="path39"
       style="opacity:1;fill:#4e6378" />
  </g>
</svg>
